X: 10
T:Pnt ur y Bys
% Nottingham Music Database
S:Helen, via EF
M:4/4
L:1/4
K:G
d|:"G"Bd dB|"C"ce ec|"G"Bd dB|"Am"e/2d/2c/2B/2 "D7"A2|"G"Bd dB|"C"ce ec|\
"Em"Bd "D7"Ad/2c/2|"G"BG G2:|
"G"GB dg|"C"ge/2f/2 g2|"G"G/2B/2d dB|"Am"cA "D7"A2|"G"GB dg|"C"ge/2f/2 g2|\
"G"B/2c/2d "D7"A/2B/2c|"G"BG G2:|


